icon-themes/breeze_svg/cmd/sc_heading1parastyle.svg

<svg viewBox="0 0 16 16" xmlns="http://www.w3.org/2000/svg"><path d="m2 2v12h2v-5h4v5h2v-12h-2v5h-4v-5z" fill="#4d4d4d"/><path d="m12.949219 8-1.949219 1.5390625.617188.7636715.695312-.5546871c.082758-.0656635.228992-.2033922.441406-.4140625l-.019531.6230468-.013672.5703128v3.472656h1.279297v-6z" fill="#1d99f3"/></svg>

<svg xmlns="http://www.w3.org/2000/svg" viewBox="0 0 16 16">
 <path 
     style="fill:#4d4d4d" 
     d="M 2 2 L 2 14 L 4 14 L 4 9 L 8 9 L 8 14 L 10 14 L 10 2 L 8 2 L 8 7 L 4 7 L 4 2 L 2 2 z "
     />
 <path 
     style="fill:#1d99f3" 
     d="M 12.949219 8 L 11 9.5390625 L 11.617188 10.302734 L 12.3125 9.7480469 C 12.395258 9.6823834 12.541492 9.5446547 12.753906 9.3339844 L 12.734375 9.9570312 L 12.720703 10.527344 L 12.720703 14 L 14 14 L 14 8 L 12.949219 8 z "
     />
 </svg>
